src/assets/img/icons/dusk/svg/natural-user-interface-1.svg

<svg enable-background="new 0 0 64 64" height="128" viewBox="0 0 64 64" width="128" xmlns="http://www.w3.org/2000/svg"><circle cx="13.5" cy="24.5" fill="#f283a5" r="6.5"/><circle cx="50.5" cy="24.5" fill="#f283a5" r="6.5"/><circle cx="43.5" cy="54.5" fill="#f283a5" r="6.5"/><circle cx="20.5" cy="54.5" fill="#f283a5" r="6.5"/><path d="m50.653 21.739-6.653-.739-4.053-3.378c-1.258-1.048-2.844-1.622-4.481-1.622h-7.222c-1.459 0-2.881.456-4.069 1.304l-5.175 3.696-5.689.711c-1.32.165-2.311 1.288-2.311 2.618v.032c0 1.458 1.181 2.639 2.638 2.639h7.686c.599 0 1.18-.204 1.648-.578l3.028-2.422v11.375l-7.792 16.99c-.658 1.434.019 3.126 1.483 3.712 1.312.525 2.808-.026 3.466-1.277l8.843-16.8 9.585 17.427c.747 1.358 2.524 1.741 3.764.811.963-.722 1.29-2.019.784-3.111l-8.133-17.564v-11.563l2.742 2.361c.478.412 1.089.639 1.721.639h7.898c1.458 0 2.639-1.181 2.639-2.638 0-1.345-1.011-2.474-2.347-2.623z" fill="#85cbf8"/><circle cx="32" cy="8" fill="#faefde" r="5"/><g fill="#8d6c9f"><path d="m32 14c3.309 0 6-2.691 6-6s-2.691-6-6-6-6 2.691-6 6 2.691 6 6 6zm0-10.241c2.338 0 4.241 1.902 4.241 4.241s-1.903 4.241-4.241 4.241-4.241-1.903-4.241-4.241 1.903-4.241 4.241-4.241z"/><path d="m39.905 26.118c1.176.794 2.479 1.342 3.845 1.635 1.214 2.509 3.78 4.247 6.75 4.247 4.136 0 7.5-3.364 7.5-7.5s-3.364-7.5-7.5-7.5c-2.377 0-4.492 1.117-5.866 2.848l-3.621-2.624c-1.042-.755-2.198-1.317-3.434-1.67-3.65-1.044-7.509-1.043-11.194.01-1.211.345-2.346.892-3.372 1.625l-3.676 2.626c-1.373-1.712-3.475-2.815-5.837-2.815-4.136 0-7.5 3.364-7.5 7.5s3.364 7.5 7.5 7.5c2.967 0 5.532-1.734 6.747-4.241 1.358-.286 2.655-.826 3.827-1.607l.926-.617v9.248l-5.594 12.306c-3.617.532-6.406 3.648-6.406 7.411 0 4.136 3.364 7.5 7.5 7.5s7.5-3.364 7.5-7.5c0-1.642-.538-3.155-1.437-4.39l5.437-10.874 5.437 10.874c-.899 1.235-1.437 2.749-1.437 4.39 0 4.136 3.364 7.5 7.5 7.5s7.5-3.364 7.5-7.5c0-3.763-2.789-6.879-6.407-7.411l-5.593-12.306v-9.277zm10.595-7.118c3.033 0 5.5 2.467 5.5 5.5s-2.467 5.5-5.5 5.5c-1.7 0-3.21-.784-4.219-2h4.219c1.93 0 3.5-1.57 3.5-3.5s-1.57-3.5-3.5-3.5h-2.98c-.377 0-.744-.06-1.099-.161 1.007-1.123 2.456-1.839 4.079-1.839zm-37 11c-3.033 0-5.5-2.467-5.5-5.5s2.467-5.5 5.5-5.5c1.615 0 3.059.71 4.065 1.823-.376.115-.767.177-1.168.177h-2.897c-1.93 0-3.5 1.57-3.5 3.5s1.57 3.5 3.5 3.5h4.219c-1.009 1.216-2.519 2-4.219 2zm12.5 24.5c0 3.033-2.467 5.5-5.5 5.5s-5.5-2.467-5.5-5.5c0-2.254 1.374-4.174 3.32-5.021l-1.457 3.205c-.532 1.169-.434 2.512.261 3.591.696 1.08 1.878 1.725 3.17 1.725 1.434 0 2.722-.796 3.363-2.079l1.837-3.674c.315.69.506 1.447.506 2.253zm23 0c0 3.033-2.467 5.5-5.5 5.5s-5.5-2.467-5.5-5.5c0-.806.191-1.563.506-2.253l1.837 3.674c.64 1.283 1.929 2.079 3.371 2.079 1.284 0 2.466-.645 3.162-1.725.695-1.08.793-2.422.261-3.591l-1.457-3.206c1.946.847 3.32 2.768 3.32 5.022zm-11.91-19.086 8.227 18.099c.252.555.208 1.167-.123 1.681-.331.512-.87.806-1.488.806-.671 0-1.274-.373-1.574-.973l-9.237-18.474c-.17-.339-.516-.553-.895-.553s-.725.214-.895.553l-9.237 18.474c-.3.6-.903.973-1.582.973-.61 0-1.149-.294-1.48-.807-.33-.513-.375-1.125-.123-1.681l8.227-18.098c.059-.13.09-.271.09-.414v-11.333c0-.369-.203-.708-.528-.882-.325-.175-.72-.156-1.026.05l-2.481 1.654c-1.484.988-3.21 1.511-4.993 1.511h-4.472c-.827 0-1.5-.673-1.5-1.5s.673-1.5 1.5-1.5h2.897c1.258 0 2.464-.386 3.487-1.117l4.292-3.065c.84-.6 1.768-1.047 2.794-1.34 3.29-.94 6.769-.94 10.061 0 1.011.289 1.956.748 2.809 1.366l4.159 3.014c1.031.747 2.248 1.142 3.521 1.142h2.98c.827 0 1.5.673 1.5 1.5s-.673 1.5-1.5 1.5h-4.441c-1.801 0-3.542-.533-5.035-1.54l-2.464-1.664c-.307-.208-.704-.229-1.029-.054-.327.174-.531.513-.531.883v11.375c0 .143.031.284.09.414z"/><path d="m33 31h-2c-.552 0-1 .448-1 1s.448 1 1 1h2c.552 0 1-.448 1-1s-.448-1-1-1z"/><path d="m33 26h-2c-.552 0-1 .448-1 1s.448 1 1 1h2c.552 0 1-.448 1-1s-.448-1-1-1z"/><path d="m33 21h-2c-.552 0-1 .448-1 1s.448 1 1 1h2c.552 0 1-.448 1-1s-.448-1-1-1z"/></g></svg>

<svg xmlns="http://www.w3.org/2000/svg" xmlns:xlink="http://www.w3.org/1999/xlink" version="1.1" id="Layer_1" x="0px" y="0px" viewBox="0 0 64 64" style="enable-background:new 0 0 64 64;" xml:space="preserve" width="128" height="128">
<circle style="fill:#F283A5;" cx="13.5" cy="24.5" r="6.5"/>
<circle style="fill:#F283A5;" cx="50.5" cy="24.5" r="6.5"/>
<circle style="fill:#F283A5;" cx="43.5" cy="54.5" r="6.5"/>
<circle style="fill:#F283A5;" cx="20.5" cy="54.5" r="6.5"/>
<path style="fill:#85CBF8;" d="M50.653,21.739L44,21l-4.053-3.378C38.689,16.574,37.103,16,35.466,16h-7.222  c-1.459,0-2.881,0.456-4.069,1.304L19,21l-5.689,0.711C11.991,21.876,11,22.999,11,24.329v0.032C11,25.819,12.181,27,13.638,27  h7.686c0.599,0,1.18-0.204,1.648-0.578L26,24v11.375l-7.792,16.99c-0.658,1.434,0.019,3.126,1.483,3.712h0  c1.312,0.525,2.808-0.026,3.466-1.277L32,38l9.585,17.427c0.747,1.358,2.524,1.741,3.764,0.811h0  c0.963-0.722,1.29-2.019,0.784-3.111L38,35.563V24l2.742,2.361C41.22,26.773,41.831,27,42.463,27h7.898  C51.819,27,53,25.819,53,24.362v0C53,23.017,51.989,21.888,50.653,21.739z"/>
<circle style="fill:#FAEFDE;" cx="32" cy="8" r="5"/>
<g>
	<path style="fill:#8D6C9F;" d="M32,14c3.309,0,6-2.691,6-6s-2.691-6-6-6s-6,2.691-6,6S28.691,14,32,14z M32,3.759   c2.338,0,4.241,1.902,4.241,4.241S34.338,12.241,32,12.241S27.759,10.338,27.759,8S29.662,3.759,32,3.759z"/>
	<path style="fill:#8D6C9F;" d="M39.905,26.118c1.176,0.794,2.479,1.342,3.845,1.635C44.964,30.262,47.53,32,50.5,32   c4.136,0,7.5-3.364,7.5-7.5S54.636,17,50.5,17c-2.377,0-4.492,1.117-5.866,2.848l-3.621-2.624c-1.042-0.755-2.198-1.317-3.434-1.67   c-3.65-1.044-7.509-1.043-11.194,0.01c-1.211,0.345-2.346,0.892-3.372,1.625l-3.676,2.626C17.964,18.103,15.862,17,13.5,17   C9.364,17,6,20.364,6,24.5S9.364,32,13.5,32c2.967,0,5.532-1.734,6.747-4.241c1.358-0.286,2.655-0.826,3.827-1.607L25,25.535v9.248   l-5.594,12.306C15.789,47.621,13,50.737,13,54.5c0,4.136,3.364,7.5,7.5,7.5s7.5-3.364,7.5-7.5c0-1.642-0.538-3.155-1.437-4.39   L32,39.236l5.437,10.874C36.538,51.345,36,52.859,36,54.5c0,4.136,3.364,7.5,7.5,7.5s7.5-3.364,7.5-7.5   c0-3.763-2.789-6.879-6.407-7.411L39,34.783v-9.277L39.905,26.118z M50.5,19c3.033,0,5.5,2.467,5.5,5.5S53.533,30,50.5,30   c-1.7,0-3.21-0.784-4.219-2H50.5c1.93,0,3.5-1.57,3.5-3.5S52.43,21,50.5,21h-2.98c-0.377,0-0.744-0.06-1.099-0.161   C47.428,19.716,48.877,19,50.5,19z M13.5,30C10.467,30,8,27.533,8,24.5s2.467-5.5,5.5-5.5c1.615,0,3.059,0.71,4.065,1.823   C17.189,20.938,16.798,21,16.397,21H13.5c-1.93,0-3.5,1.57-3.5,3.5s1.57,3.5,3.5,3.5h4.219C16.71,29.216,15.2,30,13.5,30z M26,54.5   c0,3.033-2.467,5.5-5.5,5.5S15,57.533,15,54.5c0-2.254,1.374-4.174,3.32-5.021l-1.457,3.205c-0.532,1.169-0.434,2.512,0.261,3.591   C17.82,57.355,19.002,58,20.294,58c1.434,0,2.722-0.796,3.363-2.079l1.837-3.674C25.809,52.937,26,53.694,26,54.5z M49,54.5   c0,3.033-2.467,5.5-5.5,5.5S38,57.533,38,54.5c0-0.806,0.191-1.563,0.506-2.253l1.837,3.674C40.983,57.204,42.272,58,43.714,58   c1.284,0,2.466-0.645,3.162-1.725c0.695-1.08,0.793-2.422,0.261-3.591l-1.457-3.206C47.626,50.325,49,52.246,49,54.5z    M37.09,35.414l8.227,18.099c0.252,0.555,0.208,1.167-0.123,1.681C44.863,55.706,44.324,56,43.706,56   c-0.671,0-1.274-0.373-1.574-0.973l-9.237-18.474C32.725,36.214,32.379,36,32,36s-0.725,0.214-0.895,0.553l-9.237,18.474   C21.568,55.627,20.965,56,20.286,56c-0.61,0-1.149-0.294-1.48-0.807c-0.33-0.513-0.375-1.125-0.123-1.681l8.227-18.098   C26.969,35.284,27,35.143,27,35V23.667c0-0.369-0.203-0.708-0.528-0.882c-0.325-0.175-0.72-0.156-1.026,0.05l-2.481,1.654   C21.481,25.477,19.755,26,17.972,26H13.5c-0.827,0-1.5-0.673-1.5-1.5s0.673-1.5,1.5-1.5h2.897c1.258,0,2.464-0.386,3.487-1.117   l4.292-3.065c0.84-0.6,1.768-1.047,2.794-1.34c3.29-0.94,6.769-0.94,10.061,0c1.011,0.289,1.956,0.748,2.809,1.366l4.159,3.014   C45.03,22.605,46.247,23,47.52,23h2.98c0.827,0,1.5,0.673,1.5,1.5S51.327,26,50.5,26h-4.441c-1.801,0-3.542-0.533-5.035-1.54   l-2.464-1.664c-0.307-0.208-0.704-0.229-1.029-0.054C37.204,22.916,37,23.255,37,23.625V35C37,35.143,37.031,35.284,37.09,35.414z"/>
	<path style="fill:#8D6C9F;" d="M33,31h-2c-0.552,0-1,0.448-1,1s0.448,1,1,1h2c0.552,0,1-0.448,1-1S33.552,31,33,31z"/>
	<path style="fill:#8D6C9F;" d="M33,26h-2c-0.552,0-1,0.448-1,1s0.448,1,1,1h2c0.552,0,1-0.448,1-1S33.552,26,33,26z"/>
	<path style="fill:#8D6C9F;" d="M33,21h-2c-0.552,0-1,0.448-1,1s0.448,1,1,1h2c0.552,0,1-0.448,1-1S33.552,21,33,21z"/>
</g>
</svg>
